assets/img/Brands/instagram.svg

<svg width="30" height="31" viewBox="0 0 30 31" fill="none" xmlns="http://www.w3.org/2000/svg">
<path d="M15.0033 7.77908C10.7468 7.77908 7.31344 11.2132 7.31344 15.4707C7.31344 19.7282 10.7468 23.1623 15.0033 23.1623C19.2599 23.1623 22.6933 19.7282 22.6933 15.4707C22.6933 11.2132 19.2599 7.77908 15.0033 7.77908ZM15.0033 20.4713C12.2527 20.4713 10.0039 18.2287 10.0039 15.4707C10.0039 12.7127 12.246 10.4701 15.0033 10.4701C17.7607 10.4701 20.0028 12.7127 20.0028 15.4707C20.0028 18.2287 17.754 20.4713 15.0033 20.4713ZM24.8015 7.46446C24.8015 8.46189 23.9983 9.2585 23.0078 9.2585C22.0106 9.2585 21.2142 8.4552 21.2142 7.46446C21.2142 6.47372 22.0173 5.67041 23.0078 5.67041C23.9983 5.67041 24.8015 6.47372 24.8015 7.46446ZM29.8946 9.28527C29.7808 6.88206 29.232 4.75331 27.4718 2.99943C25.7184 1.24556 23.5901 0.696632 21.1874 0.576137C18.7111 0.435559 11.2889 0.435559 8.8126 0.576137C6.41662 0.689938 4.28834 1.23886 2.52817 2.99274C0.767987 4.74662 0.225878 6.87537 0.10541 9.27858C-0.0351366 11.7554 -0.0351366 19.1793 0.10541 21.6561C0.219186 24.0593 0.767987 26.1881 2.52817 27.942C4.28834 29.6959 6.40993 30.2448 8.8126 30.3653C11.2889 30.5058 18.7111 30.5058 21.1874 30.3653C23.5901 30.2515 25.7184 29.7025 27.4718 27.942C29.2253 26.1881 29.7741 24.0593 29.8946 21.6561C30.0351 19.1793 30.0351 11.7621 29.8946 9.28527ZM26.6955 24.3137C26.1735 25.6258 25.1629 26.6366 23.8444 27.1654C21.8701 27.9487 17.1852 27.7679 15.0033 27.7679C12.8215 27.7679 8.12995 27.942 6.1623 27.1654C4.85053 26.6433 3.83993 25.6325 3.31121 24.3137C2.52817 22.3389 2.70887 17.653 2.70887 15.4707C2.70887 13.2884 2.53486 8.59577 3.31121 6.62768C3.83324 5.31562 4.84384 4.3048 6.1623 3.77596C8.13664 2.99274 12.8215 3.17348 15.0033 3.17348C17.1852 3.17348 21.8767 2.99943 23.8444 3.77596C25.1562 4.2981 26.1668 5.30893 26.6955 6.62768C27.4785 8.60247 27.2978 13.2884 27.2978 15.4707C27.2978 17.653 27.4785 22.3456 26.6955 24.3137Z" fill="#857885"/>
</svg>

<svg width="30" height="31" fill="none" xmlns="http://www.w3.org/2000/svg"><path d="M15.003 7.78a7.679 7.679 0 00-7.69 7.69 7.679 7.679 0 007.69 7.692 7.679 7.679 0 007.69-7.691 7.679 7.679 0 00-7.69-7.692zm0 12.691c-2.75 0-5-2.242-5-5s2.243-5 5-5c2.758 0 5 2.242 5 5s-2.249 5-5 5zm9.799-13.007a1.79 1.79 0 01-1.794 1.794 1.794 1.794 0 111.794-1.794zm5.093 1.821C29.78 6.882 29.232 4.753 27.472 3 25.718 1.246 23.59.697 21.187.576c-2.476-.14-9.898-.14-12.374 0-2.396.114-4.525.663-6.285 2.417C.768 4.747.226 6.875.105 9.279c-.14 2.476-.14 9.9 0 12.377.114 2.403.663 4.532 2.423 6.286 1.76 1.754 3.882 2.303 6.285 2.423 2.476.14 9.898.14 12.374 0 2.403-.113 4.531-.662 6.285-2.423 1.753-1.754 2.302-3.883 2.423-6.286.14-2.477.14-9.894 0-12.37zm-3.2 15.029a5.062 5.062 0 01-2.85 2.851c-1.975.784-6.66.603-8.842.603-2.181 0-6.873.174-8.84-.603a5.062 5.062 0 01-2.852-2.851c-.783-1.975-.602-6.661-.602-8.843 0-2.183-.174-6.875.602-8.843a5.062 5.062 0 012.851-2.852c1.975-.783 6.66-.603 8.841-.603 2.182 0 6.874-.174 8.841.603a5.062 5.062 0 012.851 2.852c.784 1.974.603 6.66.603 8.843 0 2.182.18 6.875-.602 8.843z" fill="#857885"/></svg>
